!!!COM: Scriabin, Alexander
!!!OTL: Prelude
!!!OPR: 4 Preludes
!!!OPS: 31
!!!ONM: 1
!!!ODT: 1903
!!!AGN: Prelude
**kern	**kern
*staff2	*staff1
*Ipiano	*Ipiano
*clefF4	*clefG2
*k[b-e-a-d-g-]	*k[b-e-a-d-g-]
*D-:	*D-:
*M3/4	*M3/4
*	*^
12r	4raa	4rc
12r	.	.
12DD-L	.	.
12AA-	8.d-L	4F 4A-
12FJ	.	.
12DD-L	.	.
.	16cJk	.
=1	=1	=1
12BB--	2f	4F 4Gn 4d-
12FJ	.	.
12BB--L	.	.
12F	.	4rc
12d-J	.	.
12DD-L	.	.
12AA-	8.d-L	4F 4A-
12FJ	.	.
12DD-L	.	.
.	16cJk	.
=2	=2	=2
.	8qF/	.
12GG-	2a-	2B- 2d-
12FJ	.	.
12GG-L	.	.
12E-	.	.
12d-J	.	.
12DD-L	.	.
12GGn	12gnL	4F 4Bn
12FJ	12.f	.
12CCL	.	.
.	24enJk	.
=3	=3	=3
.	8qF/	.
12GGn	8ddnL	8B-XL 8f
12FJ	.	.
.	8anJ	8dnJ 8f
12GGL	.	.
12F	8ccL	[4d [4f
12dnJ	.	.
.	[8b-J	.
12CCL	.	.
12GG	8.b-L]	8.dL] 8.f]
12FJ	.	.
12CCL	.	.
.	16aJk	16B-Jk 16d
=4	=4	=4
12C	8anL	4B- 4c
12EnJ	.	.
.	8gnJ	.
12FFL	.	.
12C	8enL	4An 4c
12FJ	.	.
.	8fJ	.
12BBB-L	.	.
12BB-	8.a-XL	4A-X 4dn
12FJ	.	.
12EE-L	.	.
.	16gJk	.
=5	=5	=5
.	8qA-/	.
12BB-	8ffL	8d-XL 8a-
12A-J	.	.
.	8ccJ	8fJ 8a-
12BB-L	.	.
12A-	8ee-L	[4f [4a-
12fJ	.	.
.	[8dd-J	.
12EE-L	.	.
12BB-	8.dd-L]	8.fL] 8.a-]
12A-J	.	.
12EE-L	.	.
.	16ccJk	16d-Jk 16f
=6	=6	=6
12E-	4.cc	4d- 4e-
12GnJ	.	.
12E-L	.	.
12d-	.	4rc
12gnJ	.	.
.	8b-	.
12AA-L	.	.
12E-	8.a-L	4c 4e-
12cJ	.	.
12AA-L	.	.
.	16gnJk	.
=7	=7	=7
12F-X	2cc	4c 4dn 4a-
12cJ	.	.
12F-L	.	.
12c	.	4rc
12a-J	.	.
12AA-L	.	.
12E-	8.a-L	4c 4e-
12cJ	.	.
12AA-L	.	.
.	16gnJk	.
=8	=8	=8
.	8qc/	.
12D-	2ee-	2f 2a-
12cJ	.	.
12D-L	.	.
12B-	.	.
12a-J	.	.
12AA-L	.	.
12Dn	12ddnL	4c 4f#X
12cJ	12.cc	.
12DDnL 12D	.	.
.	24bnJk	.
=9	=9	=9
12F#X	8gg#XL	8ccL 8een
12cJ	.	.
.	8eeJ	8g#XJ 8cc
12DnL	.	.
12c	8ccL	8enL 8g#
12enJ	.	.
.	8g#J	8cJ 8e
12DDnL	.	.
12D	8.bnL	4c 4f#X
12cJ	.	.
12GGnL	.	.
.	16anJk	.
*	*v	*v
=10||	=10||
*k[f#]	*k[f#]
*	*^
12D	[4g	4B
12BJ	.	.
12DL	.	.
12B	8g]	4rc
12gJ	.	.
.	8raa	.
12GGL	.	.
12D	8.ddL	4rc
12BJ	.	.
12GGL	.	.
.	16ddJk	.
=11	=11	=11
12C	12ddL	2e
12B-XJ	12f#	.
12CL	12gJ	.
12B-	12ddL	.
12eJ	12cc	.
12GGL	12b-XJ	.
12C	12aL	12d#XL
12B-J	12g	12e
12GGL	24r	24r
.	24eJk	24A#XJk
=12	=12	=12
12D	2d	4Bn
12BnJ	.	.
12DL	.	.
12B	.	4rc
12gJ	.	.
12GGL	.	.
12D	8.ddL	4rc
12BJ	.	.
12GGL	.	.
.	16ddJk	.
=13	=13	=13
12C	12ddL	2e
12B-XJ	12f#	.
12CL	12gJ	.
12B-	12ddL	.
12eJ	12cc	.
12GGL	12b-XJ	.
12C	12aL	12d#XL
12B-J	12g	12e
12GGL	24r	24r
.	24eJk	24A#XJk
=14	=14	=14
12D	[4d	[4Bn
12BnJ	.	.
12BBL	.	.
12B	6d]	4B]
12gJ	.	.
12GGL	12b	.
12C	12aL	12d#XL
12B-XJ	12g	12e
12GGL	24r	24r
.	24eJk	24A#XJk
=15	=15	=15
12D	[4d	[4Bn
12BnJ	.	.
12DL	.	.
12B	6d]	4B]
12gJ	.	.
12GGL	12b	.
12C	12aL	12d#XL
12B-XJ	12g	12e
12GGL	24r	24r
.	24eJk	24A#XJ
=16	=16	=16
12D	2d	2Bn
12BnJ	.	.
12DL	.	.
12B	.	.
12gJ	.	.
12GGL	.	.
12D	8.ddL	8.gL 8.b
12BJ	.	.
12CC#XL	.	.
.	16ddJk	16f#Jk 16b
*	*v	*v
=17||	=17||
*k[b-e-a-d-g-]	*k[b-e-a-d-g-]
*	*^
12D-	[4ee-	2f 2a-
12c-XJ	.	.
12D-L	.	.
12c-	8ee-L]	.
12fJ	.	.
.	8dd-J	.
12AA-L	.	.
12F	8cc-XL	4e- 4f
12c-J	.	.
.	8e-J	.
12DD-L	.	.
=18	=18	=18
*	*	*^
12D-	8b-L	2c-X	4e-\
12c-XJ	.	.	.
.	8gnJ	.	.
12D-L	.	.	.
12c-	8b-L	.	4f\
12fJ	.	.	.
.	8a-J	.	.
12GG-L	.	.	.
12D-	8.g-XL	4B-	4r
12B-J	.	.	.
12GG-L	.	.	.
.	16fJk	.	.
*	*	*v	*v
=19	=19	=19
12E--	2b-	4B- 4c 4g-
12B-J	.	.
12E--L	.	.
12B-	.	4rc
12g-J	.	.
12GG-L	.	.
12D-	8.g-L	4B- 4d-
12B-J	.	.
12GG-L	.	.
.	16fJk	.
=20	=20	=20
.	8qc/	.
12C-X	2dd-	2e- 2g-
12B-J	.	.
12C-L	.	.
12A-	.	.
12g-J	.	.
12GG-L	.	.
12Cn	12ccL	4B- 4en
12B-J	12.b-	.
12FFL	.	.
.	24anJk	.
=21	=21	=21
.	8qB-/	.
12C	8ggnL	8e-XL 8b-
12B-J	.	.
.	8ddnJ	8gnJ 8b-
12CL	.	.
12B-	8ffL	[4g [4b-
12gnJ	.	.
.	[8ee-J	.
12FFL	.	.
12C	8.ee-L]	8.gL] 8.b-]
12B-J	.	.
12FFL	.	.
.	16ddJk	16e-Jk 16g
=22	=22	=22
12F	8ddnL	4e- 4f
12AnJ	.	.
.	8ccJ	.
12BB-L	.	.
12F	8anL	4dn 4f
12B-J	.	.
.	8b-J	.
12EE-L	.	.
12E-	8.dd-XL	4d-X 4gn
12B-J	.	.
12AA-L	.	.
.	16ccJk	.
=23	=23	=23
.	8qd-/	.
12E-	8bb-L	8g-XL 8dd-
12d-J	.	.
.	8ffJ	8b-J 8dd-
12E-L	.	.
12d-	8aa-L	[4b- [4dd-
12b-J	.	.
.	[8gg-J	.
12AA-L	.	.
12E-	8.gg-L]	8.b-L] 8.dd-]
12d-J	.	.
12AA-L	.	.
.	16ffJk	16g-Jk 16b-
=24	=24	=24
12A-	4.ff	4g- 4a-
12cJ	.	.
12A-L	.	.
12g-	.	4rc
12ccJ	.	.
.	8ee-	.
12DD-L	.	.
12AA-	8.dd-L	4f 4a-
12FJ	.	.
12D-L	.	.
.	16ccJk	.
=25	=25	=25
12B--	2ff	2f 2gn 2dd-
12fJ	.	.
12DD-L	.	.
12BB--	.	.
12FJ	.	.
12D-L	.	.
12A-	8.dd-L	4f 4a-
12fJ	.	.
12DD-L	.	.
.	16ccJk	.
*	*v	*v
=26	=26
.	8qf/
*	*^
12GG-	2aa-	2b- 2dd-
12FJ	.	.
12D-L	.	.
12G-	.	.
12e-J	.	.
12DD-L	.	.
12GGn	12ggnL	4f 4bn
12FJ	12.ff	.
12GGGnL 12GG	.	.
.	24eenJ	.
*	*v	*v
=27||	=27||
*k[]	*k[]
*	*^
12F	12ccc#XL	12ffL 12aa
12BJ	12aa	12cc#X 12ff
12FL	12ffJ	12aJ 12cc#
12B	12ffL	12aL 12cc#
12aJ	12ccn	12f
12GGL	12cc#XJ	12fJ 12a
12F	6ee	4f 4b
12BJ	.	.
12CCL	12dd	.
=28	=28	=28
12GG	2cc	4e
12EJ	.	.
12CL	.	.
12G	.	4rc
12eJ	.	.
12CCL	.	.
12GG	8.ggL	4rc
12EJ	.	.
12CL	.	.
.	16ggJk	.
*	*v	*v
=29	=29
*	*^
12F	12ggL	2a
12e-XJ	12b	.
12CCL	12ccJ	.
12AA	12ggL	.
12E-XJ	12ff	.
12CL	12ee-XJ	.
12F	12ddL	12g#XL
12e-J	12cc	12a
12CCL	24r	24r
.	24aJ	24d#XJk
=30	=30	=30
12GG	2g	4en
12EnXJ	.	.
12CL	.	.
12G	.	4rc
12eJ	.	.
12CCL	.	.
12GG	8.ggL	4rc
12EJ	.	.
12CL	.	.
.	16ggJk	.
=31	=31	=31
12F	12ggL	2a
12e-XJ	12b	.
12CCL	12ccJ	.
12AA	12ggL	.
12E-XJ	12ff	.
12CL	12ee-XJ	.
12F	12ddL	12g#XL
12e-J	12cc	12a
12CCL	24r	24r
.	24aJk	24d#XJk
=32	=32	=32
12GG	[4g	[4en
12EnJ	.	.
12CL	.	.
12G	6g]	4e]
12eJ	.	.
12CCL	12ee	.
12FF	12ddL	12g#XL
12E-XJ	12cc	12a
12CL	24r	24r
.	24aJk	24d#XJk
=33	=33	=33
12G	[4g	[4en
12enJ	.	.
12CCL	.	.
12GG	6g]	4e]
12EJ	.	.
12CL	12ee	.
12F	12ddL	12g#XL
12e-XJ	12cc	12a
12CCL	24r	24r
.	24aJk	24d#XJk
=34	=34	=34
12GG	[4g	[4en
12EnJ	.	.
12CL	.	.
12G	6g]	4e]
12eJ	.	.
12r	12c	.
4r	12gL	4rc
.	12cc	.
.	12eeJ	.
*	*v	*v
=35	=35
4CCC	4ccc
4r	4r
4r	4r
==	==
*-	*-
!!!system-decoration: {(*)}
!!!ENC: Bryan Jacob Bell
!!!END: November 2021 to April 2022
!!!PED: Konstantin Igumnov and Yakov Milstein
!!!PTL: A.N. Skryabin: Polnoe sobranie sochinenii dlia fortepiano (Muzgiz)
